www/assets/icons/3g_mobiledata.svg

<svg xmlns="http://www.w3.org/2000/svg" width="24" height="24" viewBox="0 0 24 24" fill='currentColor'><path d="M3 7v2h5v2H4v2h4v2H3v2h5c1.1 0 2-.9 2-2v-1.5c0-.83-.67-1.5-1.5-1.5.83 0 1.5-.67 1.5-1.5V9c0-1.1-.9-2-2-2zm18 4v4c0 1.1-.9 2-2 2h-5c-1.1 0-2-.9-2-2V9c0-1.1.9-2 2-2h5c1.1 0 2 .9 2 2h-7v6h5v-2h-2.5v-2z"/></svg>

<svg width="24" height="24" viewBox="0 0 24 24" xmlns="http://www.w3.org/2000/svg" fill='currentColor'><path d="M3 7V9H8V11H4V13H8V15H3V17H8C9.1 17 10 16.1 10 15V13.5C10 12.67 9.33 12 8.5 12C9.33 12 10 11.33 10 10.5V9C10 7.9 9.1 7 8 7H3ZM21 11V15C21 16.1 20.1 17 19 17H14C12.9 17 12 16.1 12 15V9C12 7.9 12.9 7 14 7H19C20.1 7 21 7.9 21 9H14V15H19V13H16.5V11H21Z"/></svg>
